; generated by PrusaSlicer 2.7.4+win64 on 2024-05-20 at 21:56:13 UTC
; Postprocessed by [ArcWelder](https://github.com/FormerLurker/ArcWelderLib)
; Copyright(C) 2021 - Brad Hochgesang
; Version: 1.2.0, Branch: HEAD, BuildDate: 2021-11-21T20:25:43Z
; resolution=0.05mm
; path_tolerance=5.0%
; max_radius=9999.00mm
; default_xyz_precision=3
; default_e_precision=5
; extrusion_rate_variance_percent=5.0%





; 

; external perimeters extrusion width = 0.42mm
; perimeters extrusion width = 0.45mm
; infill extrusion width = 0.45mm
; solid infill extrusion width = 0.45mm
; top infill extrusion width = 0.42mm
; support material extrusion width = 0.42mm
; first layer extrusion width = 0.50mm

;TYPE:Custom
G90 ; use absolute coordinates
M83 ; extruder relative mode
M140 S60 ; set bed temp
M190 S60 ; wait for bed temp
M104 S215 ; set extruder temp
M109 S215 ; wait for extruder temp
G28                                        ; move X/Y/Z to min endstops
G1 Z0.28                                   ; lift nozzle a bit 
G92 E0 
G1 Y3 F2400                                    ; zero the extruded length 
G1 X180  E40 F500                       ; Extrude 25mm of filament in a 5cm line. 
G92 E0                                     ; zero the extruded length again 
G1 E-0.2 F3000                                ; Retract a little 
G1 X181 F4000                              ; Quickly wipe away from the filament line
M117
G21 ; set units to millimeters
G90 ; use absolute coordinates
M82 ; use absolute distances for extrusion
G92 E0
M107
;LAYER_CHANGE
;Z:0.25
;HEIGHT:0.25
G1 E-2.5 F4800
G1 Z.25 F9000
G92 E0
G1 X134.75 Y134.75
G1 E2.5 F4800
G92 E0
M204 S5000
;TYPE:External perimeter
;WIDTH:0.499999
G1 X85.25 Y134.75 E2.2505
G1 X85.25 Y85.25 E4.501
G1 X134.75 Y85.25 E6.7515
G1 X134.75 Y110 E7.87675
G1 X134.75 Y134.69 E8.99927
M204 S20000
;WIPE_START
G1 F7200
G1 X134.75 Y134.75 E8.96127
G1 X130.863 Y134.75 E6.49927
;WIPE_END
G92 E0
G1 X130.558 Y134.39 F9000
G1 E2.5 F4800
M204 S5000
;TYPE:Internal infill
;WIDTH:0.5
G1 X134.39 Y134.39 E2.67422
G1 X134.39 Y130.354 E2.85772
G1 X85.61 Y130.354 E5.07549
G1 X85.61 Y126.283 E5.26058
G1 X134.39 Y126.283 E7.47835
G1 X134.39 Y122.212 E7.66344
G1 X85.61 Y122.212 E9.88121
G1 X85.61 Y118.142 E10.06625
G1 X134.39 Y118.142 E12.28402
G1 X134.39 Y114.071 E12.46911
G1 X85.61 Y114.071 E14.68688
G1 X85.61 Y110 E14.87197
G1 X134.39 Y110 E17.08974
G1 X134.39 Y105.929 E17.27483
G1 X85.61 Y105.929 E19.4926
G1 X85.61 Y101.858 E19.67769
G1 X134.39 Y101.858 E21.89546
G1 X134.39 Y105.726 E22.07132
M204 S20000
;WIPE_START
G1 F7200
G1 X134.39 Y101.858 E19.62159
G1 X134.311 Y101.858 E19.57132
;WIPE_END
G92 E0
G1 X85.61 Y93.92 F9000
G1 E2.5 F4800
M204 S5000
G1 X85.61 Y97.788 E2.67586
G1 X134.39 Y97.788 E4.89363
G1 X134.39 Y93.717 E5.07872
G1 X85.61 Y93.717 E7.29649
G1 X85.61 Y89.646 E7.48158
G1 X134.39 Y89.646 E9.69935
G1 X134.39 Y85.61 E9.88285
G1 X130.354 Y85.61 E10.06635
G1 X130.354 Y134.39 E12.28412
G1 X126.283 Y134.39 E12.46921
G1 X126.283 Y85.61 E14.68698
G1 X122.212 Y85.61 E14.87207
G1 X122.212 Y134.39 E17.08984
G1 X118.142 Y134.39 E17.27488
G1 X118.142 Y85.61 E19.49265
G1 X114.071 Y85.61 E19.67774
G1 X114.071 Y134.39 E21.89551
G1 X110 Y134.39 E22.0806
G1 X110 Y85.61 E24.29837
G1 X105.929 Y85.61 E24.48346
G1 X105.929 Y134.39 E26.70123
G1 X101.858 Y134.39 E26.88632
G1 X101.858 Y85.61 E29.10409
G1 X97.788 Y85.61 E29.28913
G1 X97.788 Y134.39 E31.5069
G1 X93.717 Y134.39 E31.69199
G1 X93.717 Y85.61 E33.90976
G1 X89.646 Y85.61 E34.09485
G1 X89.646 Y134.39 E36.31262
G1 X85.61 Y134.39 E36.49612
G1 X85.61 Y130.558 E36.67034
M204 S20000
;WIPE_START
G1 F7200;_WIPE
G1 X85.61 Y134.39 E34.24341
G1 X85.725 Y134.39 E34.17034
;WIPE_END
G92 E0
M107
;TYPE:Custom
G1 Z2.25 F600 ; Move print head up
G1 X5 Y209 F9000 ; present print
G1 Z70.25 F600 ; Move print head further up
G1 Z150 F600 ; Move print head further up
M140 S0 ; turn off heatbed
M104 S0 ; turn off temperature
M107 ; turn off fan
M84; disable motors                    ; disable stepper motors
; objects_info = {"objects":[]}
; filament used [mm] = 102.54
; filament used [cm3] = 0.25
; total filament used [g] = 0.00
; total filament cost = 0.00
; total filament used for wipe tower [g] = 0.00
; estimated printing time (normal mode) = 57s
; estimated first layer printing time (normal mode) = 57s

; prusaslicer_config = begin
; arc_fitting = disabled
; autoemit_temperature_commands = 1
; avoid_crossing_curled_overhangs = 0
; avoid_crossing_perimeters = 0
; avoid_crossing_perimeters_max_detour = 0
; bed_custom_model = 
; bed_custom_texture = D:\\1111(已去底).png
; bed_shape = 0x0,220x0,220x220,0x220
; bed_temperature = 60
; before_layer_gcode = ; BEFORE_LAYER_CHANGE [layer_num] @ [layer_z]mm
; between_objects_gcode = 
; binary_gcode = 0
; bottom_fill_pattern = monotonic
; bottom_solid_layers = 0
; bottom_solid_min_thickness = 0
; bridge_acceleration = 5000
; bridge_angle = 0
; bridge_fan_speed = 100
; bridge_flow_ratio = 1.1
; bridge_speed = 30
; brim_separation = 0.15
; brim_type = outer_only
; brim_width = 0
; color_change_gcode = M600
; complete_objects = 0
; cooling = 1
; cooling_tube_length = 5
; cooling_tube_retraction = 91.5
; default_acceleration = 20000
; default_filament_profile = "Anycubic PLA @MEGA0"
; default_print_profile = 0.20mm NORMAL @MEGA0
; deretract_speed = 80
; disable_fan_first_layers = 2
; dont_support_bridges = 1
; draft_shield = disabled
; duplicate_distance = 6
; elefant_foot_compensation = 0
; enable_dynamic_fan_speeds = 0
; enable_dynamic_overhang_speeds = 0
; end_filament_gcode = ""
; end_gcode = {if max_layer_z < max_print_height}G1 Z{z_offset+min(max_layer_z+2, max_print_height)} F600 ; Move print head up{endif}\nG1 X5 Y{print_bed_max[1]*0.95} F{travel_speed*60} ; present print\n{if max_layer_z < max_print_height-10}G1 Z{z_offset+min(max_layer_z+70, max_print_height-10)} F600 ; Move print head further up{endif}\n{if max_layer_z < max_print_height*0.6}G1 Z{max_print_height*0.6} F600 ; Move print head further up{endif}\nM140 S0 ; turn off heatbed\nM104 S0 ; turn off temperature\nM107 ; turn off fan\nM84; disable motors                    ; disable stepper motors
; external_perimeter_acceleration = 5000
; external_perimeter_extrusion_width = 0.42
; external_perimeter_speed = 40%
; external_perimeters_first = 1
; extra_loading_move = -2
; extra_perimeters = 0
; extra_perimeters_on_overhangs = 0
; extruder_clearance_height = 20
; extruder_clearance_radius = 20
; extruder_colour = #FFFF00
; extruder_offset = 0x0
; extrusion_axis = E
; extrusion_multiplier = 0.98
; extrusion_width = 0.42
; fan_always_on = 1
; fan_below_layer_time = 600
; filament_colour = #29B2B2
; filament_cooling_final_speed = 3.4
; filament_cooling_initial_speed = 2.2
; filament_cooling_moves = 4
; filament_cost = 0
; filament_density = 0
; filament_diameter = 1.75
; filament_load_time = 0
; filament_loading_speed = 28
; filament_loading_speed_start = 3
; filament_max_volumetric_speed = 0
; filament_minimal_purge_on_wipe_tower = 15
; filament_multitool_ramming = 0
; filament_multitool_ramming_flow = 10
; filament_multitool_ramming_volume = 10
; filament_notes = ""
; filament_purge_multiplier = 100%
; filament_ramming_parameters = "120 100 6.6 6.8 7.2 7.6 7.9 8.2 8.7 9.4 9.9 10.0| 0.05 6.6 0.45 6.8 0.95 7.8 1.45 8.3 1.95 9.7 2.45 10 2.95 7.6 3.45 7.6 3.95 7.6 4.45 7.6 4.95 7.6"
; filament_retract_layer_change = 0
; filament_settings_id = "Anycubic Kobra 2 Pro-PLA"
; filament_soluble = 0
; filament_spool_weight = 0
; filament_stamping_distance = 0
; filament_stamping_loading_speed = 20
; filament_toolchange_delay = 0
; filament_type = PLA
; filament_unload_time = 0
; filament_unloading_speed = 90
; filament_unloading_speed_start = 100
; filament_vendor = (Unknown)
; fill_angle = 90
; fill_density = 20%
; fill_pattern = grid
; first_layer_acceleration = 5000
; first_layer_acceleration_over_raft = 0
; first_layer_bed_temperature = 60
; first_layer_extrusion_width = 0.5
; first_layer_height = 0.25
; first_layer_speed = 80
; first_layer_speed_over_raft = 30
; first_layer_temperature = 215
; full_fan_speed_layer = 0
; fuzzy_skin = none
; fuzzy_skin_point_dist = 0.8
; fuzzy_skin_thickness = 0.3
; gap_fill_enabled = 1
; gap_fill_speed = 200
; gcode_comments = 0
; gcode_flavor = klipper
; gcode_label_objects = disabled
; gcode_resolution = 0.012
; gcode_substitutions = 
; high_current_on_filament_swap = 0
; host_type = octoprint
; infill_acceleration = 20000
; infill_anchor = 10
; infill_anchor_max = 10
; infill_every_layers = 1
; infill_extruder = 1
; infill_extrusion_width = 0.45
; infill_first = 0
; infill_overlap = 15%
; infill_speed = 60
; interface_shells = 0
; ironing = 0
; ironing_flowrate = 1%
; ironing_spacing = 0.1
; ironing_speed = 15
; ironing_type = top
; layer_gcode = ; AFTER_LAYER_CHANGE [layer_num] @ [layer_z]mm
; layer_height = 0.2
; machine_limits_usage = time_estimate_only
; machine_max_acceleration_e = 20000
; machine_max_acceleration_extruding = 20000
; machine_max_acceleration_retracting = 20000
; machine_max_acceleration_travel = 3000,1250
; machine_max_acceleration_x = 20000
; machine_max_acceleration_y = 20000
; machine_max_acceleration_z = 5000
; machine_max_feedrate_e = 100
; machine_max_feedrate_x = 500
; machine_max_feedrate_y = 500
; machine_max_feedrate_z = 16
; machine_max_jerk_e = 20
; machine_max_jerk_x = 20
; machine_max_jerk_y = 20
; machine_max_jerk_z = 8
; machine_min_extruding_rate = 0
; machine_min_travel_rate = 0
; max_fan_speed = 100
; max_layer_height = 0.28
; max_print_height = 250
; max_print_speed = 300
; max_volumetric_extrusion_rate_slope_negative = 0
; max_volumetric_extrusion_rate_slope_positive = 0
; max_volumetric_speed = 0
; min_bead_width = 85%
; min_fan_speed = 60
; min_feature_size = 25%
; min_layer_height = 0.08
; min_print_speed = 25
; min_skirt_length = 0
; mmu_segmented_region_interlocking_depth = 0
; mmu_segmented_region_max_width = 0
; multimaterial_purging = 140
; notes = 
; nozzle_diameter = 0.4
; only_retract_when_crossing_perimeters = 0
; ooze_prevention = 0
; output_filename_format = {input_filename_base}-{layer_height}-{print_time}-{month}-{day}.gcode
; overhang_fan_speed_0 = 0
; overhang_fan_speed_1 = 0
; overhang_fan_speed_2 = 0
; overhang_fan_speed_3 = 0
; overhang_speed_0 = 100%
; overhang_speed_1 = 50%
; overhang_speed_2 = 50%
; overhang_speed_3 = 100%
; overhangs = 1
; parking_pos_retraction = 92
; pause_print_gcode = M601
; perimeter_acceleration = 10000
; perimeter_extruder = 1
; perimeter_extrusion_width = 0.45
; perimeter_generator = arachne
; perimeter_speed = 80
; perimeters = 1
; physical_printer_settings_id = 
; post_process = ArcWelder.exe
; print_settings_id = Anycubic Kobra 2 Pro-PLA
; printer_model = 
; printer_notes = Do not remove the following keywords! These keywords are used in the "compatible printer" condition of the print and filament profiles to link the particular print and filament profiles to this printer profile.\nPRINTER_VENDOR_ANYCUBIC\nPRINTER_MODEL_Kobra 2
; printer_settings_id = Anycubic Kobra 2 Pro-PLA
; printer_technology = FFF
; printer_variant = 0.4
; printer_vendor = 
; raft_contact_distance = 0.1
; raft_expansion = 1.5
; raft_first_layer_density = 90%
; raft_first_layer_expansion = 3
; raft_layers = 0
; remaining_times = 0
; resolution = 0
; retract_before_travel = 1
; retract_before_wipe = 0%
; retract_layer_change = 1
; retract_length = 2.5
; retract_length_toolchange = 1
; retract_lift = 0
; retract_lift_above = 0
; retract_lift_below = 0
; retract_restart_extra = 0
; retract_restart_extra_toolchange = 0
; retract_speed = 80
; seam_position = aligned
; silent_mode = 0
; single_extruder_multi_material = 0
; single_extruder_multi_material_priming = 1
; skirt_distance = 5
; skirt_height = 1
; skirts = 0
; slice_closing_radius = 0.049
; slicing_mode = regular
; slowdown_below_layer_time = 6
; small_perimeter_speed = 40%
; solid_infill_acceleration = 10000
; solid_infill_below_area = 15
; solid_infill_every_layers = 0
; solid_infill_extruder = 1
; solid_infill_extrusion_width = 0.45
; solid_infill_speed = 80%
; spiral_vase = 0
; staggered_inner_seams = 0
; standby_temperature_delta = -5
; start_filament_gcode = ""
; start_gcode = G90 ; use absolute coordinates\nM83 ; extruder relative mode\nM140 S[first_layer_bed_temperature] ; set bed temp\nM190 S[first_layer_bed_temperature] ; wait for bed temp\nM104 S[first_layer_temperature] ; set extruder temp\nM109 S[first_layer_temperature] ; wait for extruder temp\nG28                                        ; move X/Y/Z to min endstops\nG1 Z0.28                                   ; lift nozzle a bit \nG92 E0 \nG1 Y3 F2400                                    ; zero the extruded length \nG1 X180  E40 F500                       ; Extrude 25mm of filament in a 5cm line. \nG92 E0                                     ; zero the extruded length again \nG1 E-0.2 F3000                                ; Retract a little \nG1 X181 F4000                              ; Quickly wipe away from the filament line\nM117
; support_material = 1
; support_material_angle = 0
; support_material_auto = 1
; support_material_bottom_contact_distance = 0
; support_material_bottom_interface_layers = -1
; support_material_buildplate_only = 1
; support_material_closing_radius = 2
; support_material_contact_distance = 0.28
; support_material_enforce_layers = 0
; support_material_extruder = 1
; support_material_extrusion_width = 0
; support_material_interface_contact_loops = 0
; support_material_interface_extruder = 1
; support_material_interface_layers = 3
; support_material_interface_pattern = rectilinear
; support_material_interface_spacing = 0
; support_material_interface_speed = 100%
; support_material_pattern = rectilinear
; support_material_spacing = 2.5
; support_material_speed = 80
; support_material_style = organic
; support_material_synchronize_layers = 0
; support_material_threshold = 0
; support_material_with_sheath = 1
; support_material_xy_spacing = 50%
; support_tree_angle = 40
; support_tree_angle_slow = 25
; support_tree_branch_diameter = 2
; support_tree_branch_diameter_angle = 5
; support_tree_branch_diameter_double_wall = 3
; support_tree_branch_distance = 1
; support_tree_tip_diameter = 0.8
; support_tree_top_rate = 15%
; temperature = 215
; template_custom_gcode = 
; thick_bridges = 0
; thin_walls = 1
; thumbnails = 230x110/PNG
; thumbnails_format = PNG
; toolchange_gcode = 
; top_fill_pattern = monotonic
; top_infill_extrusion_width = 0.42
; top_solid_infill_acceleration = 5000
; top_solid_infill_speed = 65%
; top_solid_layers = 0
; top_solid_min_thickness = 0.6
; travel_acceleration = 20000
; travel_lift_before_obstacle = 0
; travel_max_lift = 0
; travel_ramping_lift = 0
; travel_slope = 0
; travel_speed = 150
; travel_speed_z = 0
; use_firmware_retraction = 0
; use_relative_e_distances = 0
; use_volumetric_e = 0
; variable_layer_height = 1
; wall_distribution_count = 1
; wall_transition_angle = 10
; wall_transition_filter_deviation = 25%
; wall_transition_length = 100%
; wipe = 1
; wipe_into_infill = 0
; wipe_into_objects = 0
; wipe_tower = 0
; wipe_tower_acceleration = 0
; wipe_tower_bridging = 10
; wipe_tower_brim_width = 2
; wipe_tower_cone_angle = 0
; wipe_tower_extra_flow = 100%
; wipe_tower_extra_spacing = 100%
; wipe_tower_extruder = 0
; wipe_tower_no_sparse_layers = 0
; wipe_tower_rotation_angle = 0
; wipe_tower_width = 60
; wipe_tower_x = 180
; wipe_tower_y = 140
; wiping_volumes_matrix = 0
; wiping_volumes_use_custom_matrix = 0
; xy_size_compensation = 0
; z_offset = 0
; prusaslicer_config = end
